X: 33413
T: Quilty Fishermen
R: hornpipe
M: 4/4
K: Gmajor
GB DG (3cBA FA|GA BD GB dB|ce Ac Bd GD|AB (3cBA (3FED (3cBA|
GB DG BA FA|GB dg bg f=f|eA ce dG Bd|1 AD FA G4:|2 AD FA G3B||
|:de dc Bd ef|ga (3gfe dB ge|dG Bd AD FA|GE cG ec ge|
dG Bd AD BG|dB gd bg f=f|eG ce dG Bd|1 AD FA G3B:|2 AD FA G4||

